X: 587
T: Dostun Senden Irak Değil
C: Ali Rıfat Çağatay
O: Turkey
F: http://compmusic.upf.edu/node/140
N: ussak--ilahi--duyek--dostun_senden--ali_rifat_cagatay
N: makam= ussak
N: form= ilahi
N: usul= duyek = 8/4
M: 8/4
L: 1/16
K: C _2/4B   
Q: 1/4=120
%%MIDI tuningsystem comma53
z2 e2 d2 c2 c3B B2 A2  | A2 d4 c2 B3A G4  | \
w:  Dos *  *  tun  *  sen  |  *  den   | 
G2 e2 d2 c2 c2 B2 B2 A2  | 
w:  ı rak  *  *  *  *  *  de  | 
A2 d4 c2 B3A G4  | z2 e2 d2 c2 c3B B2 A2  | \
w:  *  ğil    |  Dos *  *  tun  *  sen  | 
A2 d4 c2 B3A G4  | G2 e2 d2 c2 c2 B2 B2 A2  | 
w:  *  den   |  ı rak  *  *  *  *  *  de  | 
A6 ef ed dc d4  | e2 fg fe d2 d2 e2 d2 cB  | \
w:  ğil   SAZ  |  A *  *  *  *  *  ra   | 
c2 d2 c2 B2 A2 G2 d4  | 
w:  da  *  *  *  bul   | 
A2 e2 d2 c2 c2 B2 B2 A2  | A6 ef ed dc d4  | \
w:  u zak  *  *  *  *  *  de  |  ğil   SAZ  | 
e2 fg fe d2 d2 e2 d2 cB  | 
w:  A *  *  *  *  *  ra   | 
c2 d2 c2 B2 A2 G2 d4  | A2 e2 d2 c2 c2 B2 B2 A2  | \
w:  da  *  *  *  bul   |  u zak  *  *  *  *  *  de  | 
A6 ef ed cd e4  | 
w:  ğil   SAZ  | 
z2 d4 e2 e6 d2  | (3d2e2^3/4f2 gf e2 e2 d2 {e}d2 c2  | \
w:  Bu nu  her  |  kes   | 
z2 e2 d2 c2 c2 B2 A2 G2  | 
w:  fâ *  *  rik  *  *  de  | 
d6 e2 ed cd e4  | z2 d4 e2 e6 d2  | (3d2e2^3/4f2 gf e2 e2 d2 {e}d2 c2  | 
w:  ğil   SAZ  |  Bu nu  her  |  kes   | 
z2 e2 d2 c2 c2 B2 A2 G2  | d8 c2 _1/4B2 d4  | \
w:  fâ *  *  rik  *  *  de  |  ğil   SAZ  | 
c2 d6 d4 d4  | c2 d14  | d2 g2 f2 e2 d2 c2 c2 B2  | 
w:  Bu  vus lat tır   |  fi râk   |  *  *  *  *  *  *  *  de  | 
d2 c4 d2 c2 BA B3A  | z2 e2 d2 e2 c4 B2 A2  | \
w:  ğil    |  Ağ *  la ma  gö  | 
A2 d2 c2 d2 c3B B2 BA  | 
w:  nül_ ağ *  *  *  *  *  la  | 
A12 z4  | |


